X:176
T:A onde vas dar agua (XA 06)
R:Xiraldilla
C:Tradicional
S:Msica Tradicional Asturiana, (C) Tello & Tito. Asturies, 2001.
S:http://pagina.de/MusTradAst <telloytito@asturies.org>
A:Asturies
Z:Mtodu de Xuacu Amieva 06
M:3/8
L:1/8
Q:3/8=40
K:C
E
|G2 E|FED|C C2|EEE|F3|{ED}E2 E|
|G2 E|FED|C C2|{DC}B,3|DEE|C3|
|E2 (3E/E/D/|C2 (3C/C/B,/|D3|{B,D}C3|
